out/images/aboutCard4.svg

<svg fill="none" height="79" viewBox="0 0 100 79" width="100" xmlns="http://www.w3.org/2000/svg"><path clip-rule="evenodd" d="m40 19.75v3.95h5c2.76 0 5 1.7696 5 3.95s-2.24 3.95-5 3.95h-5v3.95c0 2.1804-2.24 3.95-5 3.95s-5-1.7696-5-3.95v-3.95h-5c-2.76 0-5-1.7696-5-3.95s2.24-3.95 5-3.95h5v-3.95c0-2.1804 2.24-3.95 5-3.95s5 1.7696 5 3.95zm50 23.7h-20v-15.8h15c2.76 0 5 1.7696 5 3.95zm0 15.8h-3.895c-2.745-2.4095-6.68-3.95-11.105-3.95-1.765 0-3.43.2847-5 .7271v-4.6771h20zm-15 11.85c-2.755 0-5-1.7735-5-3.95s2.245-3.95 5-3.95 5 1.7735 5 3.95-2.245 3.95-5 3.95zm-15-11.85h-12.58c-2.23-6.8019-9.985-11.85-19.295-11.85-5.435 0-10.345 1.7226-13.935 4.5113-1.56 1.2087-4.19.2911-4.19-1.435v-38.6263c0-2.1804 2.24-3.95 5-3.95h40c2.76 0 5 1.7696 5 3.95zm-23.265 7.9c-1.735 2.3503-4.925 3.95-8.61 3.95s-6.875-1.5997-8.61-3.95c-.86-1.1653-1.39-2.5043-1.39-3.95s.53-2.7848 1.39-3.95c1.735-2.3503 4.925-3.95 8.61-3.95s6.875 1.5997 8.61 3.95c.86 1.1652 1.39 2.5043 1.39 3.95s-.53 2.7847-1.39 3.95zm53.265-47.4h-20v-11.85c0-4.36475-4.475-7.9-10-7.9h-50c-5.525 0-10 3.53525-10 7.9v52.2739c0 3.8512 3.95503 6.9761 8.83003 6.9761 2.23497 6.8019 9.98497 11.85 19.29497 11.85s17.06-5.0481 19.295-11.85h12.58c0 6.5452 6.715 11.85 15 11.85s15-5.3048 15-11.85c5.525 0 10-3.5353 10-7.9v-31.6c0-4.3648-4.475-7.9-10-7.9z" fill="#fff" fill-rule="evenodd"/></svg>

<svg width="100" height="79" viewBox="0 0 100 79" fill="none" xmlns="http://www.w3.org/2000/svg">
<path fill-rule="evenodd" clip-rule="evenodd" d="M40 19.75V23.7H45C47.76 23.7 50 25.4696 50 27.65C50 29.8304 47.76 31.6 45 31.6H40V35.55C40 37.7304 37.76 39.5 35 39.5C32.24 39.5 30 37.7304 30 35.55V31.6H25C22.24 31.6 20 29.8304 20 27.65C20 25.4696 22.24 23.7 25 23.7H30V19.75C30 17.5696 32.24 15.8 35 15.8C37.76 15.8 40 17.5696 40 19.75ZM90 43.45H70V27.65H85C87.76 27.65 90 29.4196 90 31.6V43.45ZM90 59.25H86.105C83.36 56.8405 79.425 55.3 75 55.3C73.235 55.3 71.57 55.5847 70 56.0271V51.35H90V59.25ZM75 71.1C72.245 71.1 70 69.3265 70 67.15C70 64.9735 72.245 63.2 75 63.2C77.755 63.2 80 64.9735 80 67.15C80 69.3265 77.755 71.1 75 71.1ZM60 59.25H47.42C45.19 52.4481 37.435 47.4 28.125 47.4C22.69 47.4 17.78 49.1226 14.19 51.9113C12.63 53.12 10 52.2024 10 50.4763V11.85C10 9.6696 12.24 7.9 15 7.9H55C57.76 7.9 60 9.6696 60 11.85V59.25ZM36.735 67.15C35 69.5003 31.81 71.1 28.125 71.1C24.44 71.1 21.25 69.5003 19.515 67.15C18.655 65.9847 18.125 64.6457 18.125 63.2C18.125 61.7543 18.655 60.4152 19.515 59.25C21.25 56.8997 24.44 55.3 28.125 55.3C31.81 55.3 35 56.8997 36.735 59.25C37.595 60.4152 38.125 61.7543 38.125 63.2C38.125 64.6457 37.595 65.9847 36.735 67.15ZM90 19.75H70V7.9C70 3.53525 65.525 0 60 0H10C4.475 0 0 3.53525 0 7.9V60.1739C0 64.0251 3.95503 67.15 8.83003 67.15C11.065 73.9519 18.815 79 28.125 79C37.435 79 45.185 73.9519 47.42 67.15H60C60 73.6952 66.715 79 75 79C83.285 79 90 73.6952 90 67.15C95.525 67.15 100 63.6147 100 59.25V27.65C100 23.2852 95.525 19.75 90 19.75Z" fill="white"/>
</svg>
